Sweet-Rainbow/icons/spyder.svg

<?xml version="1.0" encoding="UTF-8" standalone="no"?>
<!-- Generator: Gravit.io -->

<svg
   xmlns:dc="http://purl.org/dc/elements/1.1/"
   xmlns:cc="http://creativecommons.org/ns#"
   xmlns:rdf="http://www.w3.org/1999/02/22-rdf-syntax-ns#"
   xmlns:svg="http://www.w3.org/2000/svg"
   xmlns="http://www.w3.org/2000/svg"
   xmlns:sodipodi="http://sodipodi.sourceforge.net/DTD/sodipodi-0.dtd"
   xmlns:inkscape="http://www.inkscape.org/namespaces/inkscape"
   style="isolation:isolate"
   viewBox="0 0 36 36"
   width="48"
   height="48"
   version="1.1"
   id="svg21"
   sodipodi:docname="spyder.svg"
   inkscape:version="0.92.4 (5da689c313, 2019-01-14)">
  <metadata
     id="metadata27">
    <rdf:RDF>
      <cc:Work
         rdf:about="">
        <dc:format>image/svg+xml</dc:format>
        <dc:type
           rdf:resource="http://purl.org/dc/dcmitype/StillImage" />
        <dc:title></dc:title>
      </cc:Work>
    </rdf:RDF>
  </metadata>
  <defs
     id="defs25" />
  <sodipodi:namedview
     pagecolor="#ffffff"
     bordercolor="#666666"
     borderopacity="1"
     objecttolerance="10"
     gridtolerance="10"
     guidetolerance="10"
     inkscape:pageopacity="0"
     inkscape:pageshadow="2"
     inkscape:window-width="640"
     inkscape:window-height="480"
     id="namedview23"
     showgrid="false"
     inkscape:zoom="29.365243"
     inkscape:cx="25.325443"
     inkscape:cy="32"
     inkscape:current-layer="svg21"
     units="px" />
  <linearGradient
     id="_lgradient_12"
     x1="0.06818182"
     y1="0.23295455"
     x2="0.93843019"
     y2="0.77938956"
     gradientTransform="matrix(44.4,0,0,43.89,1.8,2.055)"
     gradientUnits="userSpaceOnUse">
    <stop
       offset="0%"
       stop-opacity="1"
       style="stop-color:rgb(48,207,208)"
       id="stop2" />
    <stop
       offset="98.26086956521739%"
       stop-opacity="1"
       style="stop-color:rgb(51,8,103)"
       id="stop4" />
  </linearGradient>
  <linearGradient
     id="_lgradient_13"
     x1="4.3268313"
     y1="11.953749"
     x2="43.736706"
     y2="36.699482"
     gradientTransform="scale(1.0052734,0.99475428)"
     gradientUnits="userSpaceOnUse">
    <stop
       offset="0%"
       stop-opacity="1"
       style="stop-color:rgb(48,207,208)"
       id="stop7" />
    <stop
       offset="98.26086956521739%"
       stop-opacity="1"
       style="stop-color:rgb(51,8,103)"
       id="stop9" />
  </linearGradient>
  <linearGradient
     id="_lgradient_14"
     x1="0"
     y1="0.5"
     x2="0.90748805"
     y2="0.92007786"
     gradientTransform="matrix(27.374,0,0,10.002,10.674,19.998)"
     gradientUnits="userSpaceOnUse">
    <stop
       offset="0%"
       stop-opacity="1"
       style="stop-color:rgb(255,65,108)"
       id="stop14" />
    <stop
       offset="84.34782608695653%"
       stop-opacity="1"
       style="stop-color:rgb(255,75,43)"
       id="stop16" />
  </linearGradient>
  <g
     id="g839"
     transform="matrix(0.79078149,0,0,0.79078149,-0.98507601,-0.91625688)">
    <path
       id="path12"
       stroke-miterlimit="4"
       d="m 26.066,16.734 c 1.225,-2.132 2.383,-4.103 3.419,-5.843 L 18.439,10.83 v 0 c 0.43,2.892 0.856,5.606 1.086,7.059 z m 1.549,0.658 c 1.249,-2.17 2.43,-4.177 3.481,-5.939 l 7.096,8.761 c -2.162,0.853 -4.694,1.878 -7.479,3.053 z m 2.871,8.33 c 1.893,2.977 3.72,5.32 5.325,7.127 l -0.115,0.496 -10.347,4.954 c 0.049,-2.189 0.152,-4.74 0.346,-7.572 z m -6.474,5.081 c -0.199,2.958 -0.3,5.615 -0.344,7.876 l -10.959,-5.4 c 1.7,-1.509 3.55,-3.31 5.379,-5.384 z m -7.074,-4.131 c -1.603,1.829 -3.226,3.442 -4.746,4.826 L 9.808,20.761 c 2.292,-0.094 5.006,-0.29 8.049,-0.663 z m 21.382,-4.675 -2.035,8.801 c -1.371,-1.655 -2.887,-3.707 -4.446,-6.163 2.362,-0.986 4.555,-1.874 6.481,-2.638 z m -27.279,-2.979 5.852,-7.081 c 0.53,3.41 0.918,5.833 1.019,6.457 -2.547,0.317 -4.854,0.511 -6.871,0.624 z m 5.424,-9.857 -8.22,9.971 C 4.68,19.221 2.469,19.055 2.051,19.021 c -0.104,0.55 -0.188,1.104 -0.251,1.66 0.271,0.025 2.393,0.201 5.88,0.142 l 2.72,12.246 c -1.87,1.578 -3.474,2.748 -4.532,3.478 0.324,0.454 0.665,0.896 1.023,1.324 0.997,-0.691 2.426,-1.734 4.1,-3.132 0.066,0.046 0.134,0.09 0.208,0.126 l 12.438,6.129 c 0.008,0.004 0.015,0.008 0.024,0.01 -0.029,2.366 0.015,3.989 0.05,4.919 0.143,0.009 0.286,0.016 0.429,0.022 0.415,-0.003 0.83,-0.018 1.245,-0.044 -0.037,-0.967 -0.088,-2.783 -0.07,-5.268 l 11.737,-5.62 c 0.18,-0.086 0.329,-0.22 0.424,-0.391 0.148,0.15 0.29,0.29 0.428,0.425 1.991,1.938 3.262,2.76 3.463,2.888 0.353,-0.431 0.69,-0.875 1.01,-1.331 -0.02,-0.012 -1.265,-0.768 -3.307,-2.756 -0.342,-0.333 -0.705,-0.704 -1.087,-1.114 L 40.68,21.07 c 3.103,-1.208 5.148,-1.957 5.52,-2.093 -0.105,-0.554 -0.23,-1.104 -0.376,-1.648 v 0 0 c -0.228,0.081 -2.296,0.815 -5.596,2.091 L 32.245,9.538 C 34.228,6.25 35.537,4.177 35.61,4.061 35.129,3.777 34.638,3.511 34.138,3.263 v 0 C 34.015,3.457 32.704,5.536 30.733,8.808 L 18.116,8.738 C 17.667,5.953 17.375,4.024 17.083,2.055 v 0 c -0.542,0.176 -1.077,0.373 -1.604,0.59 0.343,2.307 0.679,4.517 0.986,6.516 z m 9.79,9.238 3.171,6.012 -4.681,4.889 -6.069,-2.98 0.943,-6.75 z"
       style="vector-effect:non-scaling-stroke;fill:url(#_lgradient_12);fill-rule:evenodd;stroke:url(#_lgradient_13);stroke-width:1;stroke-linecap:butt;stroke-linejoin:miter;stroke-miterlimit:4"
       inkscape:connector-curvature="0" />
    <path
       id="path19"
       d="m 18.965,20 c -2.573,0.06 -4.461,1.939 -5.897,3.558 -1.435,1.62 -2.394,3.215 -2.394,3.215 l 2.566,1.551 c 0,0 0.845,-1.391 2.073,-2.776 1.227,-1.385 2.861,-2.528 3.722,-2.548 0.61,-0.015 1.118,0.206 1.76,0.726 0.642,0.52 1.33,1.33 2.06,2.213 0.731,0.883 1.503,1.839 2.473,2.635 0.97,0.796 2.225,1.444 3.692,1.426 1.165,-0.015 2.048,-0.568 2.851,-1.182 0.357,-0.273 0.696,-0.574 1.022,-0.887 0.562,0.125 1.132,0.054 1.587,-0.088 0.78,-0.241 1.468,-0.695 2.086,-1.312 0.626,-0.618 1.085,-1.31 1.329,-2.098 0.243,-0.789 0.283,-1.916 -0.543,-2.742 -0.418,-0.417 -0.906,-0.61 -1.387,-0.67 -0.481,-0.059 -0.955,0.016 -1.346,0.137 -0.781,0.242 -1.47,0.693 -2.09,1.312 0,0 -0.002,0 -0.002,0 -0.623,0.618 -1.081,1.308 -1.324,2.094 -0.086,0.279 -0.127,0.606 -0.133,0.941 -0.348,0.353 -0.696,0.681 -1.021,0.93 -0.55,0.42 -1.022,0.564 -1.069,0.565 -0.599,0.007 -1.108,-0.218 -1.75,-0.745 C 26.589,25.729 25.9,24.912 25.168,24.027 24.436,23.141 23.659,22.186 22.682,21.394 21.704,20.602 20.437,19.965 18.965,20 Z"
       style="fill:url(#_lgradient_14)"
       inkscape:connector-curvature="0" />
  </g>
</svg>

<?xml version="1.0" encoding="UTF-8" standalone="no"?><!-- Generator: Gravit.io --><svg xmlns="http://www.w3.org/2000/svg" xmlns:xlink="http://www.w3.org/1999/xlink" style="isolation:isolate" viewBox="0 0 48 48" width="48pt" height="48pt"><linearGradient id="_lgradient_12" x1="0.06818181818176848" y1="0.2329545454545455" x2="0.9384302091713563" y2="0.7793895816572807" gradientTransform="matrix(44.4,0,0,43.89,1.8,2.055)" gradientUnits="userSpaceOnUse"><stop offset="0%" stop-opacity="1" style="stop-color:rgb(48,207,208)"/><stop offset="98.26086956521739%" stop-opacity="1" style="stop-color:rgb(51,8,103)"/></linearGradient><linearGradient id="_lgradient_13" x1="0.06818181818176848" y1="0.2329545454545455" x2="0.9384302091713563" y2="0.7793895816572807"><stop offset="0%" stop-opacity="1" style="stop-color:rgb(48,207,208)"/><stop offset="98.26086956521739%" stop-opacity="1" style="stop-color:rgb(51,8,103)"/></linearGradient><path d=" M 26.066 16.734 C 27.291 14.602 28.449 12.631 29.485 10.891 L 18.439 10.83 L 18.439 10.83 C 18.869 13.722 19.295 16.436 19.525 17.889 L 26.066 16.734 Z  M 27.615 17.392 C 28.864 15.222 30.045 13.215 31.096 11.453 L 38.192 20.214 C 36.03 21.067 33.498 22.092 30.713 23.267 L 27.615 17.392 Z  M 30.486 25.722 C 32.379 28.699 34.206 31.042 35.811 32.849 L 35.696 33.345 L 25.349 38.299 C 25.398 36.11 25.501 33.559 25.695 30.727 L 30.486 25.722 Z  M 24.012 30.803 C 23.813 33.761 23.712 36.418 23.668 38.679 L 12.709 33.279 C 14.409 31.77 16.259 29.969 18.088 27.895 L 24.012 30.803 Z  M 16.938 26.672 C 15.335 28.501 13.712 30.114 12.192 31.498 L 9.808 20.761 C 12.1 20.667 14.814 20.471 17.857 20.098 L 16.938 26.672 Z  M 38.32 21.997 L 36.285 30.798 C 34.914 29.143 33.398 27.091 31.839 24.635 C 34.201 23.649 36.394 22.761 38.32 21.997 L 38.32 21.997 Z  M 11.041 19.018 L 16.893 11.937 C 17.423 15.347 17.811 17.77 17.912 18.394 C 15.365 18.711 13.058 18.905 11.041 19.018 L 11.041 19.018 Z  M 16.465 9.161 L 8.245 19.132 C 4.68 19.221 2.469 19.055 2.051 19.021 C 1.947 19.571 1.863 20.125 1.8 20.681 C 2.071 20.706 4.193 20.882 7.68 20.823 L 10.4 33.069 C 8.53 34.647 6.926 35.817 5.868 36.547 C 6.192 37.001 6.533 37.443 6.891 37.871 C 7.888 37.18 9.317 36.137 10.991 34.739 C 11.057 34.785 11.125 34.829 11.199 34.865 L 23.637 40.994 C 23.645 40.998 23.652 41.002 23.661 41.004 C 23.632 43.37 23.676 44.993 23.711 45.923 C 23.854 45.932 23.997 45.939 24.14 45.945 C 24.555 45.942 24.97 45.927 25.385 45.901 C 25.348 44.934 25.297 43.118 25.315 40.633 L 37.052 35.013 C 37.232 34.927 37.381 34.793 37.476 34.622 C 37.624 34.772 37.766 34.912 37.904 35.047 C 39.895 36.985 41.166 37.807 41.367 37.935 C 41.72 37.504 42.057 37.06 42.377 36.604 C 42.357 36.592 41.112 35.836 39.07 33.848 C 38.728 33.515 38.365 33.144 37.983 32.734 L 40.68 21.07 C 43.783 19.862 45.828 19.113 46.2 18.977 C 46.095 18.423 45.97 17.873 45.824 17.329 L 45.824 17.329 L 45.824 17.329 C 45.596 17.41 43.528 18.144 40.228 19.42 L 32.245 9.538 C 34.228 6.25 35.537 4.177 35.61 4.061 C 35.129 3.777 34.638 3.511 34.138 3.263 L 34.138 3.263 C 34.015 3.457 32.704 5.536 30.733 8.808 L 18.116 8.738 C 17.667 5.953 17.375 4.024 17.083 2.055 L 17.083 2.055 C 16.541 2.231 16.006 2.428 15.479 2.645 C 15.822 4.952 16.158 7.162 16.465 9.161 L 16.465 9.161 Z  M 26.255 18.399 L 29.426 24.411 L 24.745 29.3 L 18.676 26.32 L 19.619 19.57 L 26.255 18.399 L 26.255 18.399 Z " fill-rule="evenodd" fill="url(#_lgradient_12)" vector-effect="non-scaling-stroke" stroke-width="1" stroke="url(#_lgradient_13)" stroke-linejoin="miter" stroke-linecap="butt" stroke-miterlimit="4"/><linearGradient id="_lgradient_14" x1="0" y1="0.5" x2="0.9074880558539661" y2="0.9200778838291643" gradientTransform="matrix(27.374,0,0,10.002,10.674,19.998)" gradientUnits="userSpaceOnUse"><stop offset="0%" stop-opacity="1" style="stop-color:rgb(255,65,108)"/><stop offset="84.34782608695653%" stop-opacity="1" style="stop-color:rgb(255,75,43)"/></linearGradient><path d=" M 18.965 20 C 16.392 20.06 14.504 21.939 13.068 23.558 C 11.633 25.178 10.674 26.773 10.674 26.773 L 13.24 28.324 C 13.24 28.324 14.085 26.933 15.313 25.548 C 16.54 24.163 18.174 23.02 19.035 23 C 19.645 22.985 20.153 23.206 20.795 23.726 C 21.437 24.246 22.125 25.056 22.855 25.939 C 23.586 26.822 24.358 27.778 25.328 28.574 C 26.298 29.37 27.553 30.018 29.02 30 C 30.185 29.985 31.068 29.432 31.871 28.818 C 32.228 28.545 32.567 28.244 32.893 27.931 C 33.455 28.056 34.025 27.985 34.48 27.843 C 35.26 27.602 35.948 27.148 36.566 26.531 C 37.192 25.913 37.651 25.221 37.895 24.433 C 38.138 23.644 38.178 22.517 37.352 21.691 C 36.934 21.274 36.446 21.081 35.965 21.021 C 35.484 20.962 35.01 21.037 34.619 21.158 C 33.838 21.4 33.149 21.851 32.529 22.47 C 32.529 22.47 32.527 22.47 32.527 22.47 C 31.904 23.088 31.446 23.778 31.203 24.564 C 31.117 24.843 31.076 25.17 31.07 25.505 C 30.722 25.858 30.374 26.186 30.049 26.435 C 29.499 26.855 29.027 26.999 28.98 27 C 28.381 27.007 27.872 26.782 27.23 26.255 C 26.589 25.729 25.9 24.912 25.168 24.027 C 24.436 23.141 23.659 22.186 22.682 21.394 C 21.704 20.602 20.437 19.965 18.965 20 L 18.965 20 Z " fill="url(#_lgradient_14)"/></svg>
